X: 1
T: Roving Blade, The
M: 9/8
L: 1/8
R: slip jig
K: Dmaj
|: A3 AGF AGF | A2 A AGF B2 d | A3 AGF AGF | B2 E E2 G dcB :|
|: A2 D D2 F F2 d | A2 D DFA B2 d | A2 F F2 E FGA | B2 E E2 G d2 B :|
